X: 812
M: C
L: 1/8
K: Gmix
V: 1
|:\
dGBG cFTA2 | dGBG gdTB2 |\
dGBG cF A(B/c/ | d)cTBA G2 (G/A/B) :|
|:\
V: 2 clef=bass middle=d
|:\
g2g2 f2f2 | g2g2 g2g2 |\
g2g2 f2f2 | g2d2 G2G2 :|
|:\
d2d2 d2d2 | g2g2 g2g2 |\
d2d2 f2f2 | g2d2 G2G2 :|

